assets/img/ods/SDG-10.svg

<svg width="720" height="720" viewBox="0 0 720 720" fill="none" xmlns="http://www.w3.org/2000/svg">
<g clip-path="url(#clip0_342_3)">
<path d="M-1.08008 -1.08008H721.08V721.08H-1.08008V-1.08008Z" fill="#BBBBBB"/>
<path d="M50.12 88.9301C46 91.1401 34.31 94.3701 30.23 96.4101V76.8601C35.67 74.6501 50.8 67.3401 55.9 61.7301H76.47V199.43H50.12V88.9301ZM81.74 162V100.32C81.74 76.1801 93.13 59.8601 118.63 59.8601C143.79 59.8601 155.35 76.1801 155.35 100.32V162C155.35 185.29 142.77 201.78 118.63 201.78C94 201.81 81.74 185.49 81.74 162ZM128.66 161.49V100.83C128.66 93.5201 127.98 82.9801 118.66 82.9801C108.97 82.9801 108.46 93.5201 108.46 100.83V161.52C108.46 168.32 109.65 178.69 118.66 178.69C127.47 178.69 128.66 168.32 128.66 161.52V161.49ZM229.73 61.6301H242.41C252.94 61.6301 258.92 65.0101 258.92 75.6301C258.92 81.9401 257.36 86.3601 252.42 88.3701L259.76 114.31H250.14L243.84 90.1901H239.29V114.31H229.73V61.6301ZM242.34 84.1801C247.87 84.1801 249.88 81.7801 249.88 76.1201C249.88 70.7901 248.39 68.1901 242.88 68.1901H239.31V84.1901L242.34 84.1801ZM264.51 61.6301H286.61V68.3901H274.06V83.5301H283.94V90.2301H274.06V107.71H286.74V114.28H264.51V61.6301ZM290.63 61.6301H303.05C315.86 61.6301 319.76 66.7601 319.76 78.0101V97.1801C319.76 108.75 315.76 114.28 303.44 114.28H290.63V61.6301ZM303.18 107.58C309.74 107.58 310.01 104.07 310.01 97.5101V77.3601C310.01 71.0501 309.36 68.4501 303.01 68.4501H300.15V107.58H303.18ZM324.76 97.2501V61.6301H334.12V98.3501C334.12 103.35 334.7 107.84 339.58 107.84C344.46 107.84 345.11 103.36 345.11 98.3501V61.6301H354.4V97.2501C354.4 108.25 351.4 114.99 339.58 114.99C327.76 114.99 324.76 108.3 324.76 97.2501ZM379.42 80.6101V76.0601C379.42 71.6401 379.36 68.0601 374.48 68.0601C369.6 68.0601 369.09 71.8301 369.09 76.6401V99.4601C369.09 105.18 370.26 107.91 374.48 107.91C379.23 107.91 379.42 104.2 379.42 99.5201V94.7801H388.66V99.0001C388.66 107.91 385.79 114.47 375.72 115V118.25C380.53 118.25 383.78 120.4 383.78 124.43C383.78 129.04 379.68 130.99 374.94 130.99C373.354 130.975 371.779 130.736 370.26 130.28V126.18C371.396 126.534 372.58 126.709 373.77 126.7C376.04 126.7 377.77 126.05 377.77 124.3C377.77 121.96 375.11 121.11 372.05 120.79V114.87C362.43 113.87 359.44 106.94 359.44 97.4501V78.6601C359.44 67.8701 362.89 61.0401 374.44 61.0401C385.23 61.0401 388.68 67.0401 388.68 76.1901V80.6101H379.42ZM401.52 61.6301H411.79L422.33 114.28H413.42L411.34 102.12H402.17L400 114.28H391L401.52 61.6301ZM403.52 51.6301C401.83 51.6301 401.24 52.6301 401.24 54.3001H396.69C396.69 49.6201 397.99 46.1101 402.22 46.1101C405.4 46.1101 407.55 49.1101 410.34 49.1101C411.84 49.1101 412.42 48.2001 412.42 46.5101H416.71C416.71 50.6001 416 54.7001 411.77 54.7001C408.41 54.7401 406.2 51.6801 403.54 51.6801L403.52 51.6301ZM410.3 96.0001L406.72 73.9001L403.15 96.0001H410.3ZM424.53 97.7701V78.0001C424.53 67.3401 428.43 61.0001 439.74 61.0001C451.05 61.0001 454.89 67.3101 454.89 78.0001V97.7701C454.89 108.36 450.99 114.99 439.74 114.99C428.49 114.99 424.53 108.43 424.53 97.7701ZM445.14 100V75.8001C445.14 71.3801 444.42 68.0601 439.74 68.0601C435.06 68.0601 434.28 71.3801 434.28 75.8001V100C434.28 104.36 435 107.87 439.74 107.87C444.48 107.87 445.14 104.4 445.14 100ZM474.39 61.6301H486.8C499.61 61.6301 503.51 66.7601 503.51 78.0101V97.1801C503.51 108.75 499.51 114.28 487.19 114.28H474.39V61.6301ZM486.93 107.58C493.5 107.58 493.76 104.07 493.76 97.5101V77.3601C493.76 71.0501 493.11 68.4501 486.76 68.4501H483.9V107.58H486.93ZM516.38 61.6301H526.65L537.18 114.28H528.27L526.19 102.12H517L514.85 114.28H505.85L516.38 61.6301ZM525.15 96.0001L521.58 73.9001L518 96.0001H525.15ZM539.19 98.9401L547.45 97.3101C547.71 103.55 549.2 107.58 553.45 107.58C556.5 107.58 557.8 105.5 557.8 102.64C557.8 98.0901 555.46 95.5601 552.02 92.5701L545.39 86.7801C541.62 83.5301 539.28 79.8901 539.28 74.0401C539.28 65.7201 544.48 61.0401 552.86 61.0401C562.74 61.0401 565.54 67.6701 566.06 75.3401L557.8 76.7701C557.61 71.8301 556.89 68.1301 552.67 68.1301C549.81 68.1301 548.25 70.2701 548.25 73.0701C548.25 76.6401 549.74 78.5901 552.54 81.0001L559.1 86.7801C563.39 90.4901 566.97 95.1001 566.97 102.06C566.97 109.66 561.64 114.99 553.77 114.99C544.13 115 539.58 109.4 539.19 98.9401ZM229.73 147.63H242.15C254.95 147.63 258.85 152.76 258.85 164.01V183.18C258.85 194.75 254.85 200.28 242.54 200.28H229.73V147.63ZM242.28 193.63C248.84 193.63 249.1 190.12 249.1 183.56V163.36C249.1 157.05 248.45 154.45 242.15 154.45H239.29V193.58L242.28 193.63ZM264.25 147.63H286.35V154.39H273.8V169.53H283.68V176.23H273.8V193.71H286.48V200.28H264.25V147.63ZM289.08 184.94L297.33 183.31C297.59 189.55 299.08 193.58 303.33 193.58C306.39 193.58 307.69 191.5 307.69 188.64C307.69 184.09 305.35 181.56 301.9 178.57L295.27 172.78C291.5 169.53 289.16 165.89 289.16 160.04C289.16 151.72 294.36 147.04 302.75 147.04C312.63 147.04 315.42 153.67 315.94 161.34L307.69 162.77C307.49 157.83 306.78 154.13 302.55 154.13C299.69 154.13 298.13 156.27 298.13 159.07C298.13 162.64 299.63 164.59 302.42 167L308.99 172.78C313.28 176.49 316.85 181.1 316.85 188.06C316.85 195.66 311.52 200.99 303.66 200.99C294 201 289.46 195.4 289.08 184.94ZM321.05 147.63H330.54V200.28H321.05V147.63ZM336.13 182.92V165.24C336.13 153.93 339.58 147.04 351.13 147.04C361.92 147.04 365.69 152.63 365.69 162.38V165.11H356.52V162.11C356.52 157.04 356 154.05 351.26 154.05C346.19 154.05 345.8 158.15 345.8 162.96V184.96C345.8 190.42 346.8 193.87 351.52 193.87C356.24 193.87 357.31 190.23 357.31 184.51V179.57H351.65V173.52H366V200.24H359.76L359.11 195.1C357.68 198.48 355.11 200.95 350.2 200.95C339.77 201 336.13 194 336.13 182.92ZM371.23 183.25V147.63H380.59V184.35C380.59 189.35 381.18 193.84 386.05 193.84C390.92 193.84 391.58 189.36 391.58 184.35V147.63H400.87V183.25C400.87 194.3 397.82 200.99 386.05 200.99C374.28 200.99 371.23 194.3 371.23 183.25ZM414.33 147.63H424.6L435.13 200.28H426.22L424.14 188.12H415L412.85 200.28H403.85L414.33 147.63ZM423.1 182L419.53 159.9L416 182H423.1ZM438.7 147.63H448.26V193.71H461.06V200.28H438.7V147.63ZM464.38 147.63H476.79C489.6 147.63 493.5 152.76 493.5 164.01V183.18C493.5 194.75 489.5 200.28 477.18 200.28H464.38V147.63ZM476.92 193.63C483.49 193.63 483.75 190.12 483.75 183.56V163.36C483.75 157.05 483.1 154.45 476.75 154.45H473.89V193.58L476.92 193.63ZM506.37 147.63H516.64L527.17 200.28H518.26L516.18 188.12H507L504.85 200.28H495.85L506.37 147.63ZM515.14 182L511.57 159.9L508 182H515.14ZM530.74 147.63H543.16C555.96 147.63 559.86 152.76 559.86 164.01V183.18C559.86 194.75 555.86 200.28 543.55 200.28H530.74V147.63ZM543.29 193.63C549.85 193.63 550.11 190.12 550.11 183.56V163.36C550.11 157.05 549.46 154.45 543.11 154.45H540.3V193.58L543.29 193.63ZM565.25 147.63H587.36V154.39H574.81V169.53H584.69V176.23H574.81V193.71H587.49V200.28H565.25V147.63ZM590.08 184.94L598.34 183.31C598.6 189.55 600.09 193.58 604.34 193.58C607.34 193.58 608.69 191.5 608.69 188.64C608.69 184.09 606.35 181.56 602.91 178.57L596.28 172.78C592.51 169.53 590.17 165.89 590.17 160.04C590.17 151.72 595.37 147.04 603.75 147.04C613.64 147.04 616.43 153.67 616.95 161.34L608.69 162.77C608.5 157.83 607.78 154.13 603.56 154.13C600.7 154.13 599.14 156.27 599.14 159.07C599.14 162.64 600.63 164.59 603.43 167L609.99 172.78C614.29 176.49 617.86 181.1 617.86 188.06C617.86 195.66 612.53 200.99 604.66 200.99C595 201 590.47 195.4 590.08 184.94ZM427 472.8H294C293.596 472.823 293.217 473.006 292.947 473.308C292.677 473.609 292.538 474.006 292.56 474.41V514.41C292.544 514.811 292.685 515.202 292.955 515.5C293.224 515.797 293.599 515.977 294 516H427C427.203 515.99 427.402 515.94 427.586 515.852C427.77 515.764 427.934 515.641 428.07 515.49C428.206 515.338 428.31 515.161 428.377 514.969C428.444 514.777 428.472 514.573 428.46 514.37V474.37C428.468 473.97 428.321 473.582 428.048 473.289C427.776 472.996 427.4 472.821 427 472.8ZM427 387.75H294C293.596 387.773 293.217 387.956 292.947 388.258C292.677 388.559 292.538 388.956 292.56 389.36V429.36C292.545 429.563 292.571 429.766 292.635 429.959C292.7 430.152 292.802 430.329 292.936 430.482C293.07 430.635 293.233 430.759 293.416 430.848C293.599 430.937 293.797 430.989 294 431H427C427.203 430.99 427.402 430.94 427.586 430.852C427.77 430.764 427.934 430.641 428.07 430.49C428.206 430.338 428.31 430.161 428.377 429.969C428.444 429.777 428.472 429.573 428.46 429.37V389.37C428.479 388.963 428.336 388.565 428.062 388.264C427.789 387.962 427.407 387.781 427 387.76M425.14 327.33L361.3 263.49C361.198 263.387 361.076 263.306 360.942 263.25C360.808 263.194 360.665 263.166 360.52 263.166C360.375 263.166 360.231 263.194 360.098 263.25C359.964 263.306 359.842 263.387 359.74 263.49L295.9 327.33C295.745 327.484 295.64 327.68 295.597 327.894C295.554 328.108 295.576 328.33 295.66 328.532C295.743 328.733 295.885 328.905 296.067 329.026C296.248 329.147 296.462 329.211 296.68 329.21H424.36C424.578 329.211 424.792 329.147 424.973 329.026C425.155 328.905 425.297 328.733 425.38 328.532C425.464 328.33 425.486 328.108 425.443 327.894C425.4 327.68 425.295 327.484 425.14 327.33ZM485.07 516.5L548.91 452.66C549.013 452.558 549.094 452.436 549.15 452.302C549.206 452.169 549.234 452.025 549.234 451.88C549.234 451.735 549.206 451.592 549.15 451.458C549.094 451.324 549.013 451.202 548.91 451.1L485.07 387.26C484.915 387.107 484.718 387.003 484.504 386.961C484.29 386.919 484.068 386.941 483.866 387.024C483.665 387.107 483.492 387.248 483.37 387.429C483.248 387.609 483.182 387.822 483.18 388.04V515.72C483.182 515.938 483.248 516.151 483.37 516.332C483.492 516.512 483.665 516.653 483.866 516.736C484.068 516.82 484.29 516.842 484.504 516.8C484.718 516.758 484.915 516.653 485.07 516.5ZM295.9 576.43L359.74 640.26C359.841 640.364 359.963 640.447 360.097 640.503C360.231 640.56 360.375 640.589 360.52 640.589C360.665 640.589 360.809 640.56 360.943 640.503C361.077 640.447 361.198 640.364 361.3 640.26L425.14 576.43C425.293 576.275 425.397 576.078 425.439 575.864C425.481 575.65 425.46 575.428 425.376 575.227C425.293 575.025 425.152 574.852 424.972 574.73C424.791 574.608 424.578 574.542 424.36 574.54H296.68C296.462 574.542 296.249 574.608 296.068 574.73C295.888 574.852 295.747 575.025 295.664 575.227C295.58 575.428 295.558 575.65 295.6 575.864C295.643 576.078 295.747 576.275 295.9 576.43ZM236 387.26L172.13 451.1C172.027 451.202 171.946 451.324 171.89 451.458C171.834 451.592 171.806 451.735 171.806 451.88C171.806 452.025 171.834 452.169 171.89 452.302C171.946 452.436 172.027 452.558 172.13 452.66L236 516.5C236.154 516.655 236.35 516.76 236.564 516.803C236.778 516.846 237 516.824 237.202 516.741C237.403 516.657 237.575 516.515 237.696 516.334C237.817 516.152 237.881 515.938 237.88 515.72V388C237.873 387.785 237.804 387.577 237.68 387.402C237.556 387.226 237.383 387.09 237.183 387.012C236.983 386.933 236.765 386.915 236.555 386.959C236.344 387.003 236.151 387.108 236 387.26Z" fill="white"/>
</g>
<defs>
<clipPath id="clip0_342_3">
<rect width="720" height="720" fill="white"/>
</clipPath>
</defs>
</svg>

<svg xmlns="http://www.w3.org/2000/svg" viewBox="0 0 720 720"><defs><style>.cls-2{fill:#fff}</style></defs><path fill="#dd1367" d="M-1.08-1.08h722.16v722.16H-1.08z" id="goal_background" data-name="goal background"/><g id="ENG_text_graphics" data-name="ENG text &amp; graphics"><path class="cls-2" d="M50.12 88.93c-4.12 2.21-15.81 5.44-19.89 7.48V76.86c5.44-2.21 20.57-9.52 25.67-15.13h20.57v137.7H50.12zM81.74 162v-61.68c0-24.14 11.39-40.46 36.89-40.46 25.16 0 36.72 16.32 36.72 40.46V162c0 23.29-12.58 39.78-36.72 39.78-24.63.03-36.89-16.29-36.89-39.78zm46.92-.51v-60.66c0-7.31-.68-17.85-10-17.85-9.69 0-10.2 10.54-10.2 17.85v60.69c0 6.8 1.19 17.17 10.2 17.17 8.81 0 10-10.37 10-17.17zM229.73 61.63h12.68c10.53 0 16.51 3.38 16.51 14 0 6.31-1.56 10.73-6.5 12.74l7.34 25.94h-9.62l-6.3-24.12h-4.55v24.12h-9.56zm12.61 22.55c5.53 0 7.54-2.4 7.54-8.06 0-5.33-1.49-7.93-7-7.93h-3.57v16zM264.51 61.63h22.1v6.76h-12.55v15.14h9.88v6.7h-9.88v17.48h12.68v6.57h-22.23zM290.63 61.63h12.42c12.81 0 16.71 5.13 16.71 16.38v19.17c0 11.57-4 17.1-16.32 17.1h-12.81zm12.55 45.95c6.56 0 6.83-3.51 6.83-10.07V77.36c0-6.31-.65-8.91-7-8.91h-2.86v39.13zM324.76 97.25V61.63h9.36v36.72c0 5 .58 9.49 5.46 9.49s5.53-4.48 5.53-9.49V61.63h9.29v35.62c0 11-3 17.74-14.82 17.74s-14.82-6.69-14.82-17.74zM379.42 80.61v-4.55c0-4.42-.06-8-4.94-8s-5.39 3.77-5.39 8.58v22.82c0 5.72 1.17 8.45 5.39 8.45 4.75 0 4.94-3.71 4.94-8.39v-4.74h9.24V99c0 8.91-2.87 15.47-12.94 16v3.25c4.81 0 8.06 2.15 8.06 6.18 0 4.61-4.1 6.56-8.84 6.56a16.87 16.87 0 01-4.68-.71v-4.1a11.51 11.51 0 003.51.52c2.27 0 4-.65 4-2.4 0-2.34-2.66-3.19-5.72-3.51v-5.92c-9.62-1-12.61-7.93-12.61-17.42V78.66c0-10.79 3.45-17.62 15-17.62 10.79 0 14.24 6 14.24 15.15v4.42zM401.52 61.63h10.27l10.54 52.65h-8.91l-2.08-12.16h-9.17L400 114.28h-9zm2-10c-1.69 0-2.28 1-2.28 2.67h-4.55c0-4.68 1.3-8.19 5.53-8.19 3.18 0 5.33 3 8.12 3 1.5 0 2.08-.91 2.08-2.6h4.29c0 4.09-.71 8.19-4.94 8.19-3.36.04-5.57-3.02-8.23-3.02zM410.3 96l-3.58-22.1-3.57 22.1zM424.53 97.77V78c0-10.66 3.9-17 15.21-17s15.15 6.31 15.15 17v19.77c0 10.59-3.9 17.22-15.15 17.22s-15.21-6.56-15.21-17.22zm20.61 2.23V75.8c0-4.42-.72-7.74-5.4-7.74s-5.46 3.32-5.46 7.74V100c0 4.36.72 7.87 5.46 7.87s5.4-3.47 5.4-7.87zM474.39 61.63h12.41c12.81 0 16.71 5.13 16.71 16.38v19.17c0 11.57-4 17.1-16.32 17.1h-12.8zm12.54 45.95c6.57 0 6.83-3.51 6.83-10.07V77.36c0-6.31-.65-8.91-7-8.91h-2.86v39.13zM516.38 61.63h10.27l10.53 52.65h-8.91l-2.08-12.16H517l-2.15 12.16h-9zM525.15 96l-3.57-22.1L518 96zM539.19 98.94l8.26-1.63c.26 6.24 1.75 10.27 6 10.27 3.05 0 4.35-2.08 4.35-4.94 0-4.55-2.34-7.08-5.78-10.07l-6.63-5.79c-3.77-3.25-6.11-6.89-6.11-12.74 0-8.32 5.2-13 13.58-13 9.88 0 12.68 6.63 13.2 14.3l-8.26 1.43c-.19-4.94-.91-8.64-5.13-8.64-2.86 0-4.42 2.14-4.42 4.94 0 3.57 1.49 5.52 4.29 7.93l6.56 5.78c4.29 3.71 7.87 8.32 7.87 15.28 0 7.6-5.33 12.93-13.2 12.93-9.64.01-14.19-5.59-14.58-16.05zM229.73 147.63h12.42c12.8 0 16.7 5.13 16.7 16.38v19.17c0 11.57-4 17.1-16.31 17.1h-12.81zm12.55 46c6.56 0 6.82-3.51 6.82-10.07v-20.2c0-6.31-.65-8.91-6.95-8.91h-2.86v39.13zM264.25 147.63h22.1v6.76H273.8v15.14h9.88v6.7h-9.88v17.48h12.68v6.57h-22.23zM289.08 184.94l8.25-1.63c.26 6.24 1.75 10.27 6 10.27 3.06 0 4.36-2.08 4.36-4.94 0-4.55-2.34-7.08-5.79-10.07l-6.63-5.79c-3.77-3.25-6.11-6.89-6.11-12.74 0-8.32 5.2-13 13.59-13 9.88 0 12.67 6.63 13.19 14.3l-8.25 1.43c-.2-4.94-.91-8.64-5.14-8.64-2.86 0-4.42 2.14-4.42 4.94 0 3.57 1.5 5.52 4.29 7.93l6.57 5.78c4.29 3.71 7.86 8.32 7.86 15.28 0 7.6-5.33 12.93-13.19 12.93-9.66.01-14.2-5.59-14.58-16.05zM321.05 147.63h9.49v52.65h-9.49zM336.13 182.92v-17.68c0-11.31 3.45-18.2 15-18.2 10.79 0 14.56 5.59 14.56 15.34v2.73h-9.17v-3c0-5.07-.52-8.06-5.26-8.06-5.07 0-5.46 4.1-5.46 8.91v22c0 5.46 1 8.91 5.72 8.91s5.79-3.64 5.79-9.36v-4.94h-5.66v-6.05H366v26.72h-6.24l-.65-5.14c-1.43 3.38-4 5.85-8.91 5.85-10.43.05-14.07-6.95-14.07-18.03zM371.23 183.25v-35.62h9.36v36.72c0 5 .59 9.49 5.46 9.49s5.53-4.48 5.53-9.49v-36.72h9.29v35.62c0 11.05-3.05 17.74-14.82 17.74s-14.82-6.69-14.82-17.74zM414.33 147.63h10.27l10.53 52.65h-8.91l-2.08-12.16H415l-2.15 12.16h-9zM423.1 182l-3.57-22.1L416 182zM438.7 147.63h9.56v46.08h12.8v6.57H438.7zM464.38 147.63h12.41c12.81 0 16.71 5.13 16.71 16.38v19.17c0 11.57-4 17.1-16.32 17.1h-12.8zm12.54 46c6.57 0 6.83-3.51 6.83-10.07v-20.2c0-6.31-.65-8.91-7-8.91h-2.86v39.13zM506.37 147.63h10.27l10.53 52.65h-8.91l-2.08-12.16H507l-2.15 12.16h-9zm8.77 34.37l-3.57-22.1L508 182zM530.74 147.63h12.42c12.8 0 16.7 5.13 16.7 16.38v19.17c0 11.57-4 17.1-16.31 17.1h-12.81zm12.55 46c6.56 0 6.82-3.51 6.82-10.07v-20.2c0-6.31-.65-8.91-7-8.91h-2.81v39.13zM565.25 147.63h22.11v6.76h-12.55v15.14h9.88v6.7h-9.88v17.48h12.68v6.57h-22.24zM590.08 184.94l8.26-1.63c.26 6.24 1.75 10.27 6 10.27 3 0 4.35-2.08 4.35-4.94 0-4.55-2.34-7.08-5.78-10.07l-6.63-5.79c-3.77-3.25-6.11-6.89-6.11-12.74 0-8.32 5.2-13 13.58-13 9.89 0 12.68 6.63 13.2 14.3l-8.26 1.43c-.19-4.94-.91-8.64-5.13-8.64-2.86 0-4.42 2.14-4.42 4.94 0 3.57 1.49 5.52 4.29 7.93l6.56 5.78c4.3 3.71 7.87 8.32 7.87 15.28 0 7.6-5.33 12.93-13.2 12.93-9.66.01-14.19-5.59-14.58-16.05zM427 472.8H294a1.53 1.53 0 00-1.44 1.61v40A1.53 1.53 0 00294 516h133a1.54 1.54 0 001.46-1.63v-40a1.54 1.54 0 00-1.46-1.57M427 387.75H294a1.53 1.53 0 00-1.44 1.61v40A1.53 1.53 0 00294 431h133a1.54 1.54 0 001.46-1.63v-40a1.54 1.54 0 00-1.46-1.61M425.14 327.33l-63.84-63.84a1.1 1.1 0 00-1.56 0l-63.84 63.84a1.1 1.1 0 00.78 1.88h127.68a1.1 1.1 0 00.78-1.88zM485.07 516.5l63.84-63.84a1.1 1.1 0 000-1.56l-63.84-63.84a1.11 1.11 0 00-1.89.78v127.68a1.11 1.11 0 001.89.78zM295.9 576.43l63.84 63.83a1.09 1.09 0 001.56 0l63.84-63.83a1.11 1.11 0 00-.78-1.89H296.68a1.11 1.11 0 00-.78 1.89zM236 387.26l-63.87 63.84a1.1 1.1 0 000 1.56L236 516.5a1.1 1.1 0 001.88-.78V388a1.1 1.1 0 00-1.88-.74z"/></g></svg>
